X: 14280
T: Gaelic Roots
R: jig
M: 6/8
K: Dmajor
|dcd fec|dfe dcA|=cB=c =cEF|GAB cde|
dcd fec|dfe dcA|gfe|dcd|fdc|d3:|
ggg|gfe|def|gfg|add|Bdd|Add|Bdd|
ggg|gfe|def|gfg|afe|fed|edc|d3:|

